images/icons/advocate.svg

<?xml version="1.0" encoding="UTF-8"?>
<svg width="79px" height="96px" viewBox="0 0 79 96" version="1.1" xmlns="http://www.w3.org/2000/svg" xmlns:xlink="http://www.w3.org/1999/xlink">
    <!-- Generator: Sketch 50.2 (55047) - http://www.bohemiancoding.com/sketch -->
    <title>AdvocateIcon Copy</title>
    <desc>Created with Sketch.</desc>
    <defs></defs>
    <g id="Page-1" stroke="none" stroke-width="1" fill="none" fill-rule="evenodd">
        <g id="Landing-Page-Copy-2" transform="translate(-258.000000, -1036.000000)" fill="#2A1B41">
            <g id="AdvocateIcon-Copy" transform="translate(258.000000, 1036.000000)">
                <path d="M79,61.6282 C79,57.0282 75.2607,53.3128 70.6311,53.3128 C70.0376,53.3128 69.3847,53.3718 68.7911,53.4897 C67.6634,50.2462 64.5177,47.9462 60.9564,47.9462 C60.3035,47.9462 59.71,48.0051 59.1165,48.1821 C58.1074,45.4103 55.7333,43.3462 52.7656,42.8154 C52.7656,22.1154 52.7656,22.1154 52.7656,22.1154 C54.2494,22.5872 55.852,22.8231 57.3952,22.8231 C60.3629,22.8231 63.3306,22.0564 66.0609,20.4641 C70.9872,17.5154 74.0736,12.4436 74.133,7.2538 C74.133,6.6641 73.8362,6.1333 73.302,5.8385 C71.5214,4.8949 69.3847,4.3051 67.2479,4.1872 C66.417,4.1282 65.6454,4.7769 65.586,5.6615 C65.5267,6.5462 66.2389,7.2538 67.0699,7.3128 C68.435,7.3718 69.7408,7.6667 70.9279,8.1974 C70.5124,11.9718 68.1382,15.5692 64.4583,17.7513 C61.4313,19.5205 57.9887,20.1103 54.9023,19.4615 C63.8054,14.2128 63.8054,14.2128 63.8054,14.2128 C64.5177,13.741 64.7551,12.7974 64.3396,12.0897 C63.8648,11.3231 62.9151,11.0872 62.1435,11.5 C53.2998,16.7487 53.2998,16.7487 53.2998,16.7487 C54.1901,13.741 56.3268,11.0282 59.3539,9.259 C60.1848,8.7872 61.0158,8.3744 61.9061,8.0795 C62.737,7.7846 63.1525,6.9 62.9151,6.0744 C62.6183,5.2487 61.728,4.8359 60.8971,5.0718 C59.8287,5.4846 58.7603,5.9564 57.7513,6.5462 C55.7926,7.7256 54.0714,9.2 52.7656,10.9103 C52.7656,1.5923 52.7656,1.5923 52.7656,1.5923 C52.7656,0.7077 52.1127,0 51.2224,0 C50.3321,0 49.6198,0.7077 49.6198,1.5923 C49.6198,25.5359 49.6198,25.5359 49.6198,25.5359 C48.3141,23.8256 46.6521,22.3513 44.6935,21.1718 C39.7077,18.2821 33.7724,17.9872 29.1428,20.4641 C28.6086,20.7 28.3118,21.2897 28.3118,21.8205 C28.3118,26.5974 30.864,31.1974 35.0781,34.2051 C35.7904,34.7359 36.7994,34.559 37.2742,33.8513 C37.8084,33.1436 37.6304,32.2 36.9181,31.6692 C33.8317,29.4872 31.873,26.1846 31.5169,22.8231 C35.0188,21.2897 39.3516,21.7026 43.0909,23.8846 C46.0586,25.6538 48.2547,28.3667 49.145,31.3744 C40.2419,26.1256 40.2419,26.1256 40.2419,26.1256 C39.5297,25.7128 38.5207,25.9487 38.1052,26.6564 C37.6304,27.4231 37.9271,28.3667 38.6394,28.8385 C47.5425,34.0282 47.5425,34.0282 47.5425,34.0282 C45.5244,34.441 43.3877,34.3821 41.3103,33.7923 C41.1322,33.7333 40.9542,33.6744 40.7168,33.6744 C39.8858,33.6744 39.2329,34.3231 39.1736,35.1487 C39.1736,35.2077 39.1736,35.2077 39.1736,35.2667 C39.1736,35.9744 39.6484,36.5641 40.3013,36.741 C41.8445,37.2128 43.447,37.4487 44.9902,37.4487 C46.5928,37.4487 48.136,37.2128 49.6198,36.741 C49.6198,42.8154 49.6198,42.8154 49.6198,42.8154 C46.7115,43.3462 44.3373,45.4103 43.3283,48.1821 C42.7348,48.0051 42.1412,47.9462 41.4884,47.9462 C37.8678,47.9462 34.7814,50.2462 33.5943,53.4897 C33.0008,53.3718 32.4072,53.3128 31.8137,53.3128 C27.1247,53.3128 23.2074,57.3821 23.3854,61.9821 C22.9106,62.3359 22.4358,62.6897 22.0203,63.0436 C21.9609,63.0436 21.9609,63.1026 21.9609,63.1026 C17.1533,67.4667 12.7017,72.0077 8.3689,76.3718 C5.876,78.9667 3.2645,81.5615 0.6529,84.1564 C5.55111512e-17,84.7462 5.55111512e-17,85.7487 0.6529,86.3974 C1.2464,86.9872 2.2554,86.9872 2.849,86.3974 C5.5199,83.8026 8.1315,81.1487 10.6243,78.5538 C14.8978,74.2487 19.3494,69.7077 24.0383,65.4026 C24.6319,64.8718 25.2254,64.6359 25.8783,64.2821 C28.4305,62.8077 31.3982,62.041 34.3065,62.041 C46.4147,61.9821 46.4147,61.9821 46.4147,61.9821 C47.2457,61.9821 48.1953,62.159 48.9076,62.5718 C49.7979,63.0436 50.2727,64.0462 50.2727,64.9897 C50.2727,66.759 48.9076,67.8205 47.305,67.9974 C47.305,67.9974 47.305,67.9974 47.2457,67.9974 C36.562,67.9974 36.562,67.9974 36.562,67.9974 C35.9091,67.9974 35.2562,68.5282 35.0781,69.1769 C34.9001,69.8846 35.1968,70.5923 35.7904,70.9462 C39.589,73.1872 39.589,73.1872 39.589,73.1872 C42.5567,74.8974 45.5244,76.7256 48.4921,78.3769 C48.6702,78.4949 48.6702,78.4949 48.6702,78.4949 C49.8572,79.1436 51.163,79.5564 52.5282,79.5564 C52.5875,79.5564 52.6469,79.5564 52.6469,79.5564 C54.3088,79.5564 55.852,79.0846 57.2171,78.141 C58.8197,77.0205 60.4222,75.9 62.0248,74.8385 C62.0248,74.8385 69.6814,69.5308 69.6814,69.5308 C70.8092,68.7051 72.5304,68.8821 73.4801,69.9436 C74.0143,70.4744 74.2517,71.241 74.1923,72.0077 C74.133,73.3641 73.0053,74.2487 71.9369,74.9564 C57.0984,85.6308 57.0984,85.6308 57.0984,85.6308 C55.1991,86.9872 53.7153,88.1077 51.5785,88.4615 C49.3824,88.8154 47.0083,88.3436 45.0496,87.2231 C44.2186,86.7513 43.447,86.2795 42.6161,85.8077 C41.9038,85.3949 40.9542,85.6308 40.4793,86.3974 C40.0639,87.1051 40.3013,88.1077 41.0729,88.5205 C41.8445,88.9923 42.6161,89.4641 43.447,89.9359 C45.9992,91.4103 49.145,92 52.0533,91.5282 C54.9617,91.0564 56.9204,89.641 58.9384,88.1667 C58.9384,88.1667 73.7769,77.4923 73.7769,77.4923 C74.311,77.1385 74.8452,76.7846 75.3201,76.3718 C76.5071,75.3103 77.2194,73.8359 77.3381,72.2436 C77.4568,70.7103 76.982,69.1769 76.0323,67.9974 C77.8723,66.4641 79,64.1641 79,61.6282 Z M73.2427,66.1103 C73.0646,66.1103 72.9459,66.0513 72.7678,65.9923 C72.7678,65.9923 72.7678,65.9923 72.7085,65.9923 C72.293,65.8744 71.8182,65.8154 71.3434,65.8154 C69.5034,65.8154 68.0789,66.759 66.6544,67.7615 C66.4763,67.8795 56.1488,75.0154 56.1488,75.0154 C54.7243,75.959 53.5965,76.4897 52.2314,76.4308 C51.4598,76.3128 50.7476,76.0769 50.0947,75.6641 C50.0947,75.6641 42.3787,71.1231 42.3787,71.1231 C43.3283,71.1231 43.3283,71.1231 43.3283,71.1231 C44.7528,71.1231 46.118,71.1821 47.5425,71.1231 C49.4418,71.0641 51.2817,70.0615 52.4095,68.5282 C53.5965,66.9359 53.7153,64.5769 53.003,62.8077 C51.9346,60.0359 49.2637,58.8564 46.4741,58.8564 C40.1826,58.8564 34.0098,58.2667 27.8963,59.9769 C27.7776,59.9769 27.7183,59.9769 27.5996,60.0359 C27.5996,60.0359 27.5996,60.0359 27.5402,60.0359 C27.2434,60.1538 27.006,60.2128 26.7092,60.3308 C27.3028,58.0897 29.3208,56.4385 31.7543,56.4385 C32.5853,56.4385 33.3569,56.6154 34.0691,56.9103 C34.4846,57.1462 35.0781,57.1462 35.4936,56.9103 C35.9684,56.6744 36.2652,56.2026 36.3246,55.6718 C36.6213,53.0769 38.8174,51.0718 41.4884,51.0718 C42.3193,51.0718 43.0316,51.2487 43.7438,51.6026 C44.2186,51.8385 44.7528,51.8385 45.2276,51.5436 C45.6431,51.3077 45.9399,50.8949 45.9992,50.3641 C46.296,47.7692 48.5515,45.7641 51.2224,45.7641 C53.8933,45.7641 56.0894,47.7692 56.3862,50.3641 C56.4455,50.8949 56.7423,51.3077 57.2171,51.5436 C57.6326,51.8385 58.2261,51.8385 58.6416,51.6026 C59.3539,51.2487 60.1255,51.0718 60.8971,51.0718 C63.568,51.0718 65.8234,53.0769 66.1202,55.6718 C66.1796,56.2026 66.4763,56.6744 66.9512,56.9103 C67.9602,57.441 69.5034,56.4385 70.6311,56.4385 C73.5394,56.4385 75.8542,58.7385 75.8542,61.6282 C75.8542,63.5154 74.8452,65.2256 73.2427,66.1103 Z" id="Fill-44"></path>
                <path d="M36.8824,82.1946 C35.8235,81.7383 34.9412,81.1678 34,80.5403 C33,79.9128 32.0588,79.1141 30.8235,79.057 C30.2941,79 29.5882,79 29.1176,79.1141 C27.8235,79.4564 27,80.255 26.2941,80.9396 C26.2353,80.9396 26.2353,80.9966 26.2353,80.9966 C23.8235,83.5638 21.2941,85.9597 18.8824,88.2987 C17.1176,89.953 15.3529,91.6644 13.5882,93.4329 C13,94.0034 13,94.9732 13.6471,95.5436 C13.9412,95.8289 14.3529,96 14.7059,96 C15.1176,96 15.5294,95.8289 15.8824,95.4866 C17.5294,93.7752 19.3529,92.0638 21.0588,90.4094 C23.5294,88.0705 26.0588,85.6745 28.5294,83.0503 C28.9412,82.651 29.3529,82.2517 29.7059,82.0805 C29.8824,82.0805 30.1176,82.0805 30.2941,82.0805 C30.3529,82.0805 30.5882,82.0235 30.7059,82.0805 C30.7059,82.0805 30.7059,82.0805 30.7059,82.0805 C31.2353,82.4228 31.7647,82.7081 32.2353,83.0503 C33.2353,83.7349 34.2941,84.4195 35.5882,84.9899 C36.3529,85.3322 37.2941,84.9899 37.6471,84.2483 C38,83.4497 37.6471,82.594 36.8824,82.1946 Z" id="Fill-45"></path>
            </g>
        </g>
    </g>
</svg>

<svg width="79" height="96" viewBox="0 0 79 96" xmlns="http://www.w3.org/2000/svg"><title>AdvocateIcon Copy</title><desc>Created with Sketch.</desc><g fill="#2A1B41"><path d="M79 61.628c0-4.6-3.739-8.315-8.369-8.315-.594 0-1.246.059-1.84.177-1.128-3.243-4.273-5.544-7.835-5.544-.653 0-1.246.059-1.84.236-1.009-2.772-3.383-4.836-6.351-5.367v-20.7c1.484.472 3.086.708 4.63.708 2.968 0 5.935-.767 8.666-2.359 4.926-2.949 8.013-8.02 8.072-13.21 0-.59-.297-1.12-.831-1.415-1.781-.944-3.917-1.533-6.054-1.651-.831-.059-1.603.59-1.662 1.474-.059.885.653 1.592 1.484 1.651 1.365.059 2.671.354 3.858.885-.415 3.774-2.79 7.372-6.47 9.554-3.027 1.769-6.47 2.359-9.556 1.71l8.903-5.249c.712-.472.95-1.415.534-2.123-.475-.767-1.425-1.003-2.196-.59l-8.844 5.249c.89-3.008 3.027-5.72 6.054-7.49.831-.472 1.662-.885 2.552-1.18.831-.295 1.246-1.179 1.009-2.005-.297-.826-1.187-1.239-2.018-1.003-1.068.413-2.137.885-3.146 1.474-1.959 1.179-3.68 2.654-4.986 4.364v-9.318c0-.885-.653-1.592-1.543-1.592-.89 0-1.603.708-1.603 1.592v23.944c-1.306-1.71-2.968-3.185-4.926-4.364-4.986-2.89-10.921-3.185-15.551-.708-.534.236-.831.826-.831 1.356 0 4.777 2.552 9.377 6.766 12.385.712.531 1.721.354 2.196-.354.534-.708.356-1.651-.356-2.182-3.086-2.182-5.045-5.485-5.401-8.846 3.502-1.533 7.835-1.12 11.574 1.061 2.968 1.769 5.164 4.482 6.054 7.49l-8.903-5.249c-.712-.413-1.721-.177-2.137.531-.475.767-.178 1.71.534 2.182l8.903 5.19c-2.018.413-4.155.354-6.232-.236-.178-.059-.356-.118-.593-.118-.831 0-1.484.649-1.543 1.474v.118c0 .708.475 1.297 1.128 1.474 1.543.472 3.146.708 4.689.708 1.603 0 3.146-.236 4.63-.708v6.074c-2.908.531-5.282 2.595-6.291 5.367-.593-.177-1.187-.236-1.84-.236-3.621 0-6.707 2.3-7.894 5.544-.593-.118-1.187-.177-1.781-.177-4.689 0-8.606 4.069-8.428 8.669-.475.354-.95.708-1.365 1.061l-.059.059c-4.808 4.364-9.259 8.905-13.592 13.269-2.493 2.595-5.104 5.19-7.716 7.785-.653.59-.653 1.592 0 2.241.593.59 1.602.59 2.196 0 2.671-2.595 5.283-5.249 7.775-7.844 4.274-4.305 8.725-8.846 13.414-13.151.594-.531 1.187-.767 1.84-1.121 2.552-1.474 5.52-2.241 8.428-2.241l12.108-.059c.831 0 1.781.177 2.493.59.89.472 1.365 1.474 1.365 2.418 0 1.769-1.365 2.831-2.968 3.008h-10.742999999999999c-.653 0-1.306.531-1.484 1.18-.178.708.119 1.415.712 1.769l3.799 2.241c2.968 1.71 5.935 3.538 8.903 5.19l.178.118c1.187.649 2.493 1.061 3.858 1.061h.119c1.662 0 3.205-.472 4.57-1.415 1.603-1.121 3.205-2.241 4.808-3.303l7.657-5.308c1.128-.826 2.849-.649 3.799.413.534.531.772 1.297.712 2.064-.059 1.356-1.187 2.241-2.255 2.949l-14.838 10.674c-1.899 1.356-3.383 2.477-5.52 2.831-2.196.354-4.57-.118-6.529-1.238l-2.433-1.415c-.712-.413-1.662-.177-2.137.59-.415.708-.178 1.71.594 2.123.772.472 1.543.944 2.374 1.415 2.552 1.474 5.698 2.064 8.606 1.592 2.908-.472 4.867-1.887 6.885-3.361l14.838-10.674c.534-.354 1.068-.708 1.543-1.121 1.187-1.061 1.899-2.536 2.018-4.128.119-1.533-.356-3.067-1.306-4.246 1.84-1.533 2.968-3.833 2.968-6.369zm-5.757 4.482c-.178 0-.297-.059-.475-.118h-.059c-.415-.118-.89-.177-1.365-.177-1.84 0-3.264.944-4.689 1.946-.178.118-10.506 7.254-10.506 7.254-1.425.944-2.552 1.474-3.917 1.415-.772-.118-1.484-.354-2.137-.767l-7.716-4.541h.95c1.425 0 2.79.059 4.214 0 1.899-.059 3.739-1.062 4.867-2.595 1.187-1.592 1.306-3.951.593-5.721-1.068-2.772-3.739-3.951-6.529-3.951-6.291 0-12.464-.59-18.578 1.12-.119 0-.178 0-.297.059h-.059l-.831.295c.594-2.241 2.612-3.892 5.045-3.892.831 0 1.603.177 2.315.472.416.236 1.009.236 1.425 0 .475-.236.772-.708.831-1.239.297-2.595 2.493-4.6 5.164-4.6.831 0 1.543.177 2.255.531.475.236 1.009.236 1.484-.059.415-.236.712-.649.772-1.179.297-2.595 2.552-4.6 5.223-4.6s4.867 2.005 5.164 4.6c.059.531.356.944.831 1.179.415.295 1.009.295 1.424.059.712-.354 1.484-.531 2.256-.531 2.671 0 4.926 2.005 5.223 4.6.059.531.356 1.003.831 1.239 1.009.531 2.552-.472 3.68-.472 2.908 0 5.223 2.3 5.223 5.19 0 1.887-1.009 3.597-2.612 4.482z"/><path d="M36.882 82.195c-1.059-.456-1.941-1.027-2.882-1.654-1-.627-1.941-1.426-3.177-1.483-.529-.057-1.235-.057-1.706.057-1.294.342-2.118 1.141-2.823 1.826l-.059.057c-2.412 2.567-4.941 4.963-7.353 7.302-1.765 1.654-3.53 3.366-5.294 5.134-.588.57-.588 1.54.059 2.111.294.285.706.456 1.059.456.412 0 .824-.171 1.177-.513 1.647-1.711 3.471-3.423 5.176-5.077 2.471-2.339 5-4.735 7.471-7.359.412-.399.824-.799 1.177-.97h.588c.059 0 .294-.057.412 0 .529.342 1.059.628 1.529.97 1 .685 2.059 1.369 3.353 1.94.765.342 1.706 0 2.059-.742.353-.799 0-1.654-.765-2.054z"/></g></svg>
